Manual/img/Component/The Ultracube.svg

<?xml version="1.0" encoding="UTF-8" standalone="no"?>
<svg
   xmlns:dc="http://purl.org/dc/elements/1.1/"
   xmlns:cc="http://creativecommons.org/ns#"
   xmlns:rdf="http://www.w3.org/1999/02/22-rdf-syntax-ns#"
   xmlns:svg="http://www.w3.org/2000/svg"
   xmlns="http://www.w3.org/2000/svg"
   xmlns:sodipodi="http://sodipodi.sourceforge.net/DTD/sodipodi-0.dtd"
   xmlns:inkscape="http://www.inkscape.org/namespaces/inkscape"
   fill="none"
   viewBox="0 0 348 348"
   version="1.1"
   id="svg48"
   sodipodi:docname="The Ultracube.svg"
   inkscape:version="0.92.4 (5da689c313, 2019-01-14)">
  <metadata
     id="metadata54">
    <rdf:RDF>
      <cc:Work
         rdf:about="">
        <dc:format>image/svg+xml</dc:format>
        <dc:type
           rdf:resource="http://purl.org/dc/dcmitype/StillImage" />
      </cc:Work>
    </rdf:RDF>
  </metadata>
  <defs
     id="defs52" />
  <sodipodi:namedview
     pagecolor="#ffffff"
     bordercolor="#666666"
     borderopacity="1"
     objecttolerance="10"
     gridtolerance="10"
     guidetolerance="10"
     inkscape:pageopacity="0"
     inkscape:pageshadow="2"
     inkscape:window-width="1920"
     inkscape:window-height="1017"
     id="namedview50"
     showgrid="false"
     inkscape:zoom="1.3563218"
     inkscape:cx="135.78717"
     inkscape:cy="175.6885"
     inkscape:window-x="1912"
     inkscape:window-y="-8"
     inkscape:window-maximized="1"
     inkscape:current-layer="svg48" />
  <circle
     cx="170"
     cy="178"
     r="157.525"
     id="circle2"
     fill="#bbb" />
  <path
     inkscape:connector-curvature="0"
     style="stroke:#000000;stroke-width:2.70217848"
     d="M 174.49547,149.54746 189.42555,99.389809"
     id="path42-7-1-8-59"
     sodipodi:nodetypes="cc" />
  <path
     inkscape:connector-curvature="0"
     style="stroke:#000000;stroke-width:2.70217848"
     d="M 213.33333,110.7096 228.26342,60.551949"
     id="path42-7-1-3-4-8"
     sodipodi:nodetypes="cc" />
  <path
     inkscape:connector-curvature="0"
     style="stroke:#000000;stroke-width:2.70217848"
     d="M 259.93879,134.01232 274.86888,83.854669"
     id="path42-7-1-3-0-6-2"
     sodipodi:nodetypes="cc" />
  <path
     inkscape:connector-curvature="0"
     style="stroke:#000000;stroke-width:2.70217848"
     d="M 221.10092,172.85021 236.031,122.69253"
     id="path42-7-1-3-7-5-7"
     sodipodi:nodetypes="cc" />
  <path
     inkscape:connector-curvature="0"
     style="stroke:#000000;stroke-width:2.70217848"
     d="m 174.49547,266.06104 14.93008,-50.15765"
     id="path42-7-1-8-5"
     sodipodi:nodetypes="cc" />
  <path
     inkscape:connector-curvature="0"
     style="stroke:#000000;stroke-width:2.70217848"
     d="m 213.33333,227.22318 14.93009,-50.15766"
     id="path42-7-1-3-4-1"
     sodipodi:nodetypes="cc" />
  <path
     inkscape:connector-curvature="0"
     style="stroke:#000000;stroke-width:2.70217848"
     d="m 259.93879,250.5259 14.93009,-50.15765"
     id="path42-7-1-3-0-6-0"
     sodipodi:nodetypes="cc" />
  <path
     inkscape:connector-curvature="0"
     style="stroke:#000000;stroke-width:2.70217848"
     d="M 221.10092,289.36379 236.031,239.20611"
     id="path42-7-1-3-7-5-3"
     sodipodi:nodetypes="cc" />
  <path
     inkscape:connector-curvature="0"
     style="stroke:#000000;stroke-width:2.70217848"
     d="M 57.981871,266.06105 72.911951,215.9034"
     id="path42-7-1-8"
     sodipodi:nodetypes="cc" />
  <path
     inkscape:connector-curvature="0"
     style="stroke:#000000;stroke-width:2.70217848"
     d="M 96.819731,227.22319 111.74981,177.06553"
     id="path42-7-1-3-4"
     sodipodi:nodetypes="cc" />
  <path
     inkscape:connector-curvature="0"
     style="stroke:#000000;stroke-width:2.70217848"
     d="m 143.42518,250.52591 14.93009,-50.15765"
     id="path42-7-1-3-0-6"
     sodipodi:nodetypes="cc" />
  <path
     inkscape:connector-curvature="0"
     style="stroke:#000000;stroke-width:2.70217848"
     d="m 104.58731,289.36379 14.93008,-50.15767"
     id="path42-7-1-3-7-5"
     sodipodi:nodetypes="cc" />
  <path
     inkscape:connector-curvature="0"
     style="stroke:#000000;stroke-width:2.70217848"
     d="M 57.981871,149.54746 72.911951,99.389799"
     id="path42-7-1"
     sodipodi:nodetypes="cc" />
  <path
     inkscape:connector-curvature="0"
     style="stroke:#000000;stroke-width:2.70217848"
     d="M 96.819731,110.7096 111.74981,60.551939"
     id="path42-7-1-3"
     sodipodi:nodetypes="cc" />
  <path
     inkscape:connector-curvature="0"
     style="stroke:#000000;stroke-width:2.70217848"
     d="M 143.42518,134.01232 158.35527,83.854669"
     id="path42-7-1-3-0"
     sodipodi:nodetypes="cc" />
  <path
     inkscape:connector-curvature="0"
     style="stroke:#000000;stroke-width:2.70217848"
     d="m 104.58731,172.85019 14.93008,-50.15766"
     id="path42-7-1-3-7"
     sodipodi:nodetypes="cc" />
  <path
     inkscape:connector-curvature="0"
     style="stroke:#000000;stroke-width:3.10702944"
     d="M 104.58731,289.36379 H 221.10092 M 104.58731,172.85019 h 116.51361 m -77.67574,77.67573 h 116.51361 m 0,-116.5136 v 116.5136 M 143.42518,134.01232 h 116.51361 m -116.51361,116.5136 v -116.5136 m 0,0 -38.83787,38.83787 m 155.35148,-38.83787 -38.83787,38.83787 m 38.83787,77.67573 -38.83787,38.83787 m -77.67574,-38.83787 -38.83787,38.83787 M 57.981871,266.06107 H 174.49548 m 0,-116.51361 V 266.06107 M 57.981871,149.54746 H 174.49548 M 57.981871,266.06107 V 149.54746 m 38.83786,77.67574 H 213.33334 m 0,-116.5136 V 227.2232 M 96.819731,110.7096 H 213.33334 M 96.819731,227.2232 V 110.7096 m 0,0 -38.83786,38.83786 M 213.33334,110.7096 174.49548,149.54746 m 38.83786,77.67574 -38.83786,38.83787 M 96.819731,227.2232 57.981871,266.06107 m 38.83786,-155.35147 46.605449,23.30272 m 69.90816,-23.30272 46.60545,23.30272 m -201.956919,15.53514 46.605439,23.30273 m 69.90817,-23.30273 46.60544,23.30273 M 96.819731,227.2232 143.42518,250.52592"
     id="path8-1" />
  <circle
     style="fill:#dddddd;stroke:#000000;stroke-width:0.77675736"
     cx="96.819748"
     cy="227.22322"
     r="7.7675738"
     id="circle10-1" />
  <path
     inkscape:connector-curvature="0"
     style="stroke:#000000;stroke-width:3.10702944"
     d="m 213.33334,227.2232 46.60545,23.30272 m -201.956919,15.53515 46.605439,23.30272 m 69.90817,-23.30272 46.60544,23.30272"
     id="path12-5" />
  <circle
     style="fill:#dddddd;stroke:#000000;stroke-width:0.77675736"
     cx="96.819748"
     cy="110.70961"
     r="7.7675738"
     id="circle14-8" />
  <circle
     style="fill:#dddddd;stroke:#000000;stroke-width:0.77675736"
     cx="213.33334"
     cy="110.70961"
     r="7.7675738"
     id="circle16-0" />
  <circle
     style="fill:#dddddd;stroke:#000000;stroke-width:0.77675736"
     cx="213.33334"
     cy="227.22322"
     r="7.7675738"
     id="circle18-3" />
  <circle
     style="fill:#dddddd;stroke:#000000;stroke-width:0.77675736"
     cx="143.42519"
     cy="134.01231"
     r="7.7675738"
     id="circle20-1" />
  <circle
     style="fill:#dddddd;stroke:#000000;stroke-width:0.77675736"
     cx="259.93878"
     cy="134.01231"
     r="7.7675738"
     id="circle22-8" />
  <circle
     style="fill:#dddddd;stroke:#000000;stroke-width:0.77675736"
     cx="143.42519"
     cy="250.52596"
     r="7.7675738"
     id="circle24-4" />
  <circle
     style="fill:#dddddd;stroke:#000000;stroke-width:0.77675736"
     cx="259.93878"
     cy="250.52596"
     r="7.7675738"
     id="circle26-1" />
  <circle
     style="fill:#dddddd;stroke:#000000;stroke-width:0.77675736"
     cx="57.981842"
     cy="149.54747"
     r="7.7675738"
     id="circle28-3" />
  <circle
     style="fill:#dddddd;stroke:#000000;stroke-width:0.77675736"
     cx="174.49548"
     cy="149.54747"
     r="7.7675738"
     id="circle30-4" />
  <circle
     style="fill:#dddddd;stroke:#000000;stroke-width:0.77675736"
     cx="57.981842"
     cy="266.0611"
     r="7.7675738"
     id="circle32-4" />
  <circle
     style="fill:#dddddd;stroke:#000000;stroke-width:0.77675736"
     cx="174.49548"
     cy="266.0611"
     r="7.7675738"
     id="circle34-5" />
  <path
     inkscape:connector-curvature="0"
     style="stroke:#000000;stroke-width:3.10702944"
     d="m 221.10092,172.85019 v 116.5136"
     id="path36-9" />
  <circle
     style="fill:#dddddd;stroke:#000000;stroke-width:0.77675736"
     cx="221.10092"
     cy="172.8502"
     r="7.7675738"
     id="circle38-9" />
  <circle
     style="fill:#dddddd;stroke:#000000;stroke-width:0.77675736"
     cx="221.10092"
     cy="289.36377"
     r="7.7675738"
     id="circle40-7" />
  <path
     inkscape:connector-curvature="0"
     style="stroke:#000000;stroke-width:3.10702944"
     d="M 104.58731,289.36379 V 172.85019"
     id="path42-7" />
  <circle
     style="fill:#dddddd;stroke:#000000;stroke-width:0.77675736"
     cx="104.58733"
     cy="172.8502"
     r="7.7675738"
     id="circle44-6" />
  <circle
     style="fill:#dddddd;stroke:#000000;stroke-width:0.77675736"
     cx="104.58733"
     cy="289.36377"
     r="7.7675738"
     id="circle46-1" />
  <path
     inkscape:connector-curvature="0"
     style="stroke:#000000;stroke-width:3.10702944"
     d="M 119.51741,239.20611 H 236.031 M 119.51741,122.69251 H 236.031 m -77.67572,77.67573 h 116.5136 m 0,-116.513601 V 200.36824 M 158.35528,83.854639 h 116.5136 M 158.35528,200.36824 V 83.854639 m 0,0 -38.83787,38.837871 M 274.86888,83.854639 236.031,122.69251 m 38.83788,77.67573 -38.83788,38.83787 m -77.67572,-38.83787 -38.83787,38.83787 M 72.911971,215.90339 H 189.42557 m 0,-116.513611 V 215.90339 M 72.911971,99.389779 H 189.42557 M 72.911971,215.90339 V 99.389779 m 38.837859,77.675741 h 116.5136 m 0,-116.513601 V 177.06552 M 111.74983,60.551919 h 116.5136 M 111.74983,177.06552 V 60.551919 m 0,0 -38.837859,38.83786 m 155.351459,-38.83786 -38.83786,38.83786 m 38.83786,77.675741 -38.83786,38.83787 m -77.67574,-38.83787 -38.837859,38.83787 m 38.837859,-155.351471 46.60545,23.30272 m 69.90815,-23.30272 46.60545,23.30272 M 72.911971,99.389779 119.51741,122.69251 M 189.42557,99.389779 236.031,122.69251 m -124.28117,54.37301 46.60545,23.30272"
     id="path8-1-2" />
  <path
     d="M5.08 5.776h336.91v337.67H5.08z"
     id="path4"
     stroke-width="2"
     stroke="#000" />
  <path
     stroke="#000"
     stroke-width="2"
     d="M282.734 40.554c0-8.376 6.966-15.165 15.56-15.165 4.126 0 8.084 1.594 11 4.44 2.92 2.842 4.56 6.7 4.56 10.722 0 8.376-6.967 15.165-15.56 15.165-8.594 0-15.56-6.79-15.56-15.166z"
     id="path6" />
  <circle
     style="fill:#dddddd;stroke:#000000;stroke-width:0.77675736"
     cx="111.74982"
     cy="177.06554"
     r="7.7675738"
     id="circle10-1-7" />
  <path
     inkscape:connector-curvature="0"
     style="stroke:#000000;stroke-width:3.10702944"
     d="m 228.26343,177.06552 46.60544,23.30272 m -201.956919,15.53515 46.605439,23.30272 m 69.90818,-23.30272 46.60543,23.30272"
     id="path12-5-7" />
  <circle
     style="fill:#dddddd;stroke:#000000;stroke-width:0.77675736"
     cx="111.74982"
     cy="60.551891"
     r="7.7675738"
     id="circle14-8-4" />
  <circle
     style="fill:#dddddd;stroke:#000000;stroke-width:0.77675736"
     cx="228.2634"
     cy="60.551891"
     r="7.7675738"
     id="circle16-0-5" />
  <circle
     style="fill:#dddddd;stroke:#000000;stroke-width:0.77675736"
     cx="228.2634"
     cy="177.06554"
     r="7.7675738"
     id="circle18-3-3" />
  <circle
     style="fill:#dddddd;stroke:#000000;stroke-width:0.77675736"
     cx="158.35526"
     cy="83.85463"
     r="7.7675738"
     id="circle20-1-1" />
  <circle
     style="fill:#dddddd;stroke:#000000;stroke-width:0.77675736"
     cx="274.86884"
     cy="83.85463"
     r="7.7675738"
     id="circle22-8-7" />
  <circle
     style="fill:#dddddd;stroke:#000000;stroke-width:0.77675736"
     cx="158.35526"
     cy="200.36827"
     r="7.7675738"
     id="circle24-4-7" />
  <circle
     style="fill:#dddddd;stroke:#000000;stroke-width:0.77675736"
     cx="274.86884"
     cy="200.36827"
     r="7.7675738"
     id="circle26-1-8" />
  <circle
     style="fill:#dddddd;stroke:#000000;stroke-width:0.77675736"
     cx="72.911926"
     cy="99.389771"
     r="7.7675738"
     id="circle28-3-0" />
  <circle
     style="fill:#dddddd;stroke:#000000;stroke-width:0.77675736"
     cx="189.42554"
     cy="99.389771"
     r="7.7675738"
     id="circle30-4-7" />
  <circle
     style="fill:#dddddd;stroke:#000000;stroke-width:0.77675736"
     cx="72.911926"
     cy="215.90343"
     r="7.7675738"
     id="circle32-4-6" />
  <circle
     style="fill:#dddddd;stroke:#000000;stroke-width:0.77675736"
     cx="189.42554"
     cy="215.90343"
     r="7.7675738"
     id="circle34-5-3" />
  <path
     inkscape:connector-curvature="0"
     style="stroke:#000000;stroke-width:3.10702944"
     d="m 236.031,122.69251 v 116.5136"
     id="path36-9-2" />
  <circle
     style="fill:#dddddd;stroke:#000000;stroke-width:0.77675736"
     cx="236.03098"
     cy="122.69249"
     r="7.7675738"
     id="circle38-9-4" />
  <circle
     style="fill:#dddddd;stroke:#000000;stroke-width:0.77675736"
     cx="236.03098"
     cy="239.20607"
     r="7.7675738"
     id="circle40-7-7" />
  <path
     inkscape:connector-curvature="0"
     style="stroke:#000000;stroke-width:3.10702944"
     d="M 119.51739,239.20611 V 122.69251"
     id="path42-7-4" />
  <circle
     style="fill:#dddddd;stroke:#000000;stroke-width:0.77675736"
     cx="119.5174"
     cy="122.69249"
     r="7.7675738"
     id="circle44-6-3" />
  <circle
     style="fill:#dddddd;stroke:#000000;stroke-width:0.77675736"
     cx="119.5174"
     cy="239.20607"
     r="7.7675738"
     id="circle46-1-4" />
</svg>

<svg xmlns="http://www.w3.org/2000/svg" fill="none" viewBox="0 0 348 348"><circle cx="170" cy="178" r="157.525" fill="#bbb"/><path d="M174.495 149.547l14.93-50.157M213.333 110.71l14.93-50.158M259.939 134.012l14.93-50.157M221.1 172.85l14.931-50.157M174.495 266.061l14.93-50.158M213.333 227.223l14.93-50.157M259.939 250.526l14.93-50.158M221.1 289.364l14.931-50.158M57.982 266.061l14.93-50.158M96.82 227.223l14.93-50.157M143.425 250.526l14.93-50.158M104.587 289.364l14.93-50.158M57.982 149.547l14.93-50.157M96.82 110.71l14.93-50.158M143.425 134.012l14.93-50.157M104.587 172.85l14.93-50.157" stroke="#000" stroke-width="2.702"/><path d="M104.587 289.364h116.514M104.587 172.85h116.514m-77.676 77.676H259.94m0-116.514v116.514M143.425 134.012H259.94M143.425 250.526V134.012m0 0l-38.838 38.838m155.352-38.838L221.1 172.85m38.838 77.676L221.1 289.364m-77.676-38.838l-38.838 38.838M57.982 266.06h116.513m0-116.514v116.514M57.982 149.547h116.513M57.982 266.061V149.547m38.838 77.676h116.513m0-116.513v116.513M96.82 110.71h116.513M96.82 227.223V110.71m0 0l-38.838 38.837m155.351-38.837l-38.838 38.837m38.838 77.676l-38.838 38.838M96.82 227.223l-38.838 38.838M96.82 110.71l46.605 23.302m69.908-23.302l46.606 23.302M57.982 149.547l46.605 23.303m69.908-23.303l46.606 23.303M96.82 227.223l46.605 23.303" stroke="#000" stroke-width="3.107"/><circle cx="96.82" cy="227.223" r="7.768" fill="#ddd" stroke="#000" stroke-width=".777"/><path d="M213.333 227.223l46.606 23.303M57.982 266.06l46.605 23.303m69.908-23.303l46.606 23.303" stroke="#000" stroke-width="3.107"/><circle cx="96.82" cy="110.71" r="7.768" fill="#ddd" stroke="#000" stroke-width=".777"/><circle cx="213.333" cy="110.71" r="7.768" fill="#ddd" stroke="#000" stroke-width=".777"/><circle cx="213.333" cy="227.223" r="7.768" fill="#ddd" stroke="#000" stroke-width=".777"/><circle cx="143.425" cy="134.012" r="7.768" fill="#ddd" stroke="#000" stroke-width=".777"/><circle cx="259.939" cy="134.012" r="7.768" fill="#ddd" stroke="#000" stroke-width=".777"/><circle cx="143.425" cy="250.526" r="7.768" fill="#ddd" stroke="#000" stroke-width=".777"/><circle cx="259.939" cy="250.526" r="7.768" fill="#ddd" stroke="#000" stroke-width=".777"/><circle cx="57.982" cy="149.547" r="7.768" fill="#ddd" stroke="#000" stroke-width=".777"/><circle cx="174.495" cy="149.547" r="7.768" fill="#ddd" stroke="#000" stroke-width=".777"/><circle cx="57.982" cy="266.061" r="7.768" fill="#ddd" stroke="#000" stroke-width=".777"/><circle cx="174.495" cy="266.061" r="7.768" fill="#ddd" stroke="#000" stroke-width=".777"/><path d="M221.1 172.85v116.514" stroke="#000" stroke-width="3.107"/><circle cx="221.101" cy="172.85" r="7.768" fill="#ddd" stroke="#000" stroke-width=".777"/><circle cx="221.101" cy="289.364" r="7.768" fill="#ddd" stroke="#000" stroke-width=".777"/><path d="M104.587 289.364V172.85" stroke="#000" stroke-width="3.107"/><circle cx="104.587" cy="172.85" r="7.768" fill="#ddd" stroke="#000" stroke-width=".777"/><circle cx="104.587" cy="289.364" r="7.768" fill="#ddd" stroke="#000" stroke-width=".777"/><path d="M119.517 239.206h116.514M119.517 122.693h116.514m-77.676 77.675H274.87m0-116.513v116.513M158.355 83.855H274.87M158.355 200.368V83.855m0 0l-38.838 38.838M274.87 83.855l-38.838 38.838m38.838 77.675l-38.838 38.838m-77.676-38.838l-38.838 38.838m-46.605-23.303h116.514m0-116.513v116.513M72.912 99.39h116.514M72.912 215.903V99.39m38.838 77.676h116.513m0-116.514v116.514M111.75 60.552h116.513M111.75 177.066V60.552m0 0L72.912 99.39m155.351-38.838L189.426 99.39m38.837 77.676l-38.837 38.837m-77.676-38.837l-38.838 38.837M111.75 60.552l46.605 23.303m69.908-23.303l46.606 23.303M72.912 99.39l46.605 23.303m69.909-23.303l46.605 23.303M111.75 177.066l46.605 23.302" stroke="#000" stroke-width="3.107"/><path d="M5.08 5.776h336.91v337.67H5.08z" stroke-width="2" stroke="#000"/><path stroke="#000" stroke-width="2" d="M282.734 40.554c0-8.376 6.966-15.165 15.56-15.165 4.126 0 8.084 1.594 11 4.44 2.92 2.842 4.56 6.7 4.56 10.722 0 8.376-6.967 15.165-15.56 15.165-8.594 0-15.56-6.79-15.56-15.166z"/><circle cx="111.75" cy="177.066" r="7.768" fill="#ddd" stroke="#000" stroke-width=".777"/><path d="M228.263 177.066l46.606 23.302M72.912 215.903l46.605 23.303m69.909-23.303l46.605 23.303" stroke="#000" stroke-width="3.107"/><circle cx="111.75" cy="60.552" r="7.768" fill="#ddd" stroke="#000" stroke-width=".777"/><circle cx="228.263" cy="60.552" r="7.768" fill="#ddd" stroke="#000" stroke-width=".777"/><circle cx="228.263" cy="177.066" r="7.768" fill="#ddd" stroke="#000" stroke-width=".777"/><circle cx="158.355" cy="83.855" r="7.768" fill="#ddd" stroke="#000" stroke-width=".777"/><circle cx="274.869" cy="83.855" r="7.768" fill="#ddd" stroke="#000" stroke-width=".777"/><circle cx="158.355" cy="200.368" r="7.768" fill="#ddd" stroke="#000" stroke-width=".777"/><circle cx="274.869" cy="200.368" r="7.768" fill="#ddd" stroke="#000" stroke-width=".777"/><circle cx="72.912" cy="99.39" r="7.768" fill="#ddd" stroke="#000" stroke-width=".777"/><circle cx="189.426" cy="99.39" r="7.768" fill="#ddd" stroke="#000" stroke-width=".777"/><circle cx="72.912" cy="215.903" r="7.768" fill="#ddd" stroke="#000" stroke-width=".777"/><circle cx="189.426" cy="215.903" r="7.768" fill="#ddd" stroke="#000" stroke-width=".777"/><path d="M236.031 122.693v116.513" stroke="#000" stroke-width="3.107"/><circle cx="236.031" cy="122.692" r="7.768" fill="#ddd" stroke="#000" stroke-width=".777"/><circle cx="236.031" cy="239.206" r="7.768" fill="#ddd" stroke="#000" stroke-width=".777"/><path d="M119.517 239.206V122.693" stroke="#000" stroke-width="3.107"/><circle cx="119.517" cy="122.692" r="7.768" fill="#ddd" stroke="#000" stroke-width=".777"/><circle cx="119.517" cy="239.206" r="7.768" fill="#ddd" stroke="#000" stroke-width=".777"/></svg>
